images/logo_sub.svg

<?xml version="1.0" encoding="UTF-8" standalone="no"?>
<!-- Created with Inkscape (http://www.inkscape.org/) -->

<svg
   xmlns:osb="http://www.openswatchbook.org/uri/2009/osb"
   xmlns:dc="http://purl.org/dc/elements/1.1/"
   xmlns:cc="http://creativecommons.org/ns#"
   xmlns:rdf="http://www.w3.org/1999/02/22-rdf-syntax-ns#"
   xmlns:svg="http://www.w3.org/2000/svg"
   xmlns="http://www.w3.org/2000/svg"
   xmlns:xlink="http://www.w3.org/1999/xlink"
   xmlns:sodipodi="http://sodipodi.sourceforge.net/DTD/sodipodi-0.dtd"
   xmlns:inkscape="http://www.inkscape.org/namespaces/inkscape"
   width="64"
   height="64"
   id="svg4136"
   version="1.1"
   inkscape:version="0.91 r13725"
   viewBox="0 0 64 64"
   sodipodi:docname="logo_sub.svg">
  <defs
     id="defs4138">
    <linearGradient
       id="linearGradient6330"
       osb:paint="solid">
      <stop
         style="stop-color:#ffffff;stop-opacity:1;"
         offset="0"
         id="stop6332" />
    </linearGradient>
    <linearGradient
       id="linearGradient6324"
       osb:paint="solid">
      <stop
         style="stop-color:#ffffff;stop-opacity:1;"
         offset="0"
         id="stop6326" />
    </linearGradient>
    <linearGradient
       id="linearGradient6318"
       osb:paint="solid">
      <stop
         style="stop-color:#4fc3f7;stop-opacity:1;"
         offset="0"
         id="stop6320" />
    </linearGradient>
    <linearGradient
       inkscape:collect="always"
       xlink:href="#linearGradient6318"
       id="linearGradient6322"
       x1="0.09391051"
       y1="31.863702"
       x2="63.996998"
       y2="31.863702"
       gradientUnits="userSpaceOnUse"
       gradientTransform="matrix(0.63581216,0,0,1,11.670565,0)" />
    <linearGradient
       inkscape:collect="always"
       xlink:href="#linearGradient6330"
       id="linearGradient6334"
       x1="1.6539033"
       y1="91.321911"
       x2="56.905968"
       y2="91.321911"
       gradientUnits="userSpaceOnUse" />
    <linearGradient
       inkscape:collect="always"
       xlink:href="#linearGradient6330"
       id="linearGradient6338"
       gradientUnits="userSpaceOnUse"
       x1="1.6539033"
       y1="91.321911"
       x2="56.905968"
       y2="91.321911"
       gradientTransform="translate(-0.18181818,3.5454554)" />
    <linearGradient
       inkscape:collect="always"
       xlink:href="#linearGradient6330"
       id="linearGradient6344"
       gradientUnits="userSpaceOnUse"
       x1="1.6539033"
       y1="91.321911"
       x2="56.905968"
       y2="91.321911" />
  </defs>
  <sodipodi:namedview
     id="base"
     pagecolor="#ffffff"
     bordercolor="#666666"
     borderopacity="1.0"
     inkscape:pageopacity="0.0"
     inkscape:pageshadow="2"
     inkscape:zoom="3.8890873"
     inkscape:cx="17.391324"
     inkscape:cy="-23.211414"
     inkscape:current-layer="layer1"
     showgrid="true"
     inkscape:document-units="px"
     inkscape:grid-bbox="true"
     inkscape:window-width="1920"
     inkscape:window-height="1017"
     inkscape:window-x="-8"
     inkscape:window-y="-8"
     inkscape:window-maximized="1"
     showguides="true" />
  <metadata
     id="metadata4141">
    <rdf:RDF>
      <cc:Work
         rdf:about="">
        <dc:format>image/svg+xml</dc:format>
        <dc:type
           rdf:resource="http://purl.org/dc/dcmitype/StillImage" />
        <dc:title></dc:title>
      </cc:Work>
    </rdf:RDF>
  </metadata>
  <g
     inkscape:groupmode="layer"
     id="layer2"
     inkscape:label="Layer 2"
     style="display:inline">
    <path
       style="fill:url(#linearGradient6322);fill-opacity:1;stroke:none;stroke-width:1.00612009;stroke-opacity:1"
       d="m 32.191866,-0.08779115 9.600377,19.74722015 1.176311,14.748949 0.732575,-10.568114 0.23297,3.656693 0.348857,-2.497134 8.077678,16.760249 L 31.809916,63.815196 11.730274,40.578254 Z"
       id="rect4844"
       inkscape:connector-curvature="0"
       sodipodi:nodetypes="cccccccccc" />
  </g>
  <g
     id="layer1"
     inkscape:label="Layer 1"
     inkscape:groupmode="layer"
     style="display:inline">
    <g
       id="g4839"
       transform="matrix(0.79377781,0,0,0.79377781,7.4737086,-31.764007)"
       style="fill:url(#linearGradient6334);fill-opacity:1">
      <g
         id="g4857"
         style="fill:url(#linearGradient6344);fill-opacity:1">
        <path
           style="font-style:normal;font-weight:normal;font-size:medium;line-height:125%;font-family:sans-serif;text-align:center;letter-spacing:0px;word-spacing:0px;text-anchor:middle;fill:url(#linearGradient6338);fill-opacity:1;stroke:none;stroke-width:1px;stroke-linecap:butt;stroke-linejoin:miter;stroke-opacity:1"
           d="m 32.029297,17.511719 c -1.220801,0.732479 -2.441307,1.450897 -3.662109,2.15625 -1.220803,0.705352 -2.48297,1.451542 -3.785157,2.238281 -1.112285,0.623964 -2.197831,1.235196 -3.255859,1.832031 -1.030899,0.596835 -2.102558,1.206113 -3.214844,1.830078 -0.135645,0.05426 -0.324199,0.163399 -0.568359,0.326172 -0.217039,0.135651 -0.353963,0.230905 -0.408203,0.285157 l 0,0.976562 c 0,2.577248 0.01388,5.167109 0.04102,7.771484 0.01378,1.324046 0.01701,2.696129 0.0098,4.111328 C 13.109052,37.424683 9.7390293,36.187686 4.9765625,35.074219 4.660742,35.260314 4.3397698,35.442888 4.0136719,35.623047 l 1.15625,0.667969 15.3457031,8.96289 0.0039,-0.01563 c 1.369288,0.796155 2.750525,1.598713 4.103516,2.386719 2.49586,1.464961 5.004356,2.90375 7.527344,4.314453 2.333086,-1.356446 4.666914,-2.69998 7,-4.029297 1.424802,-0.811806 2.820041,-1.639013 4.224609,-2.460937 l 0.01172,0.08008 15.160156,-8.800781 1.15625,-0.666016 C 59.377022,35.882336 59.05605,35.697812 58.740229,35.511716 54.5842,35.175841 50.902697,36.981381 47.025386,38.9082 c -0.0067,-1.490846 -0.007,-3.001249 -0.02148,-4.46875 -0.02711,-2.74002 -0.01325,-5.492616 0.04102,-8.259765 -2.522989,-1.464963 -5.019551,-2.915683 -7.488281,-4.353516 -2.441603,-1.46496 -4.950095,-2.90375 -7.527344,-4.314453 z m 0.121094,5.126953 c 1.709122,0.976641 3.459492,1.980821 5.25,3.011719 1.790509,1.030899 3.540878,2.062851 5.25,3.09375 l 0,10.498047 c 0,0.244161 0.01387,0.516035 0.04102,0.814453 0.0271,0.298417 0.01324,0.514745 -0.04102,0.65039 -0.02713,0.05426 -0.108496,0.135626 -0.244141,0.244141 -0.108515,0.08139 -0.24543,0.16276 -0.408203,0.24414 l -0.40625,0.244141 c -0.135645,0.05427 -0.230886,0.09592 -0.285156,0.123047 -1.546349,0.922383 -3.078438,1.817421 -4.597657,2.685547 -1.51922,0.868125 -3.07908,1.763164 -4.679687,2.685547 -1.709121,-1.030898 -3.445605,-2.048966 -5.208985,-3.052735 -1.736251,-1.00377 -3.500507,-2.019883 -5.291015,-3.050781 l 0,-12.085937 c 1.790508,-1.030901 3.554764,-2.062851 5.291015,-3.09375 1.76338,-1.030898 3.539571,-2.035078 5.330079,-3.011719 z m -0.01563,2.847656 -0.480469,0.972656 -1.074219,0.158204 0.779297,0.755859 -0.183594,1.070312 0.960938,-0.505859 0.960937,0.503906 -0.183594,-1.068359 0.775391,-0.759766 -1.074219,-0.154297 -0.480468,-0.972656 z m 0.02148,4.869141 -0.101562,0.07227 -1.730469,1.269532 -0.08203,0.06445 0.01953,0.101562 0.863281,6.009766 0.0098,0.07227 0.06445,0.04688 0.855469,0.580078 0.101562,0.06445 0.101562,-0.06445 0.855469,-0.580078 0.06445,-0.04688 0.0098,-0.07227 0.865234,-6.009766 0.01758,-0.101562 -0.08203,-0.06445 -1.730469,-1.269532 -0.101562,-0.07227 z m 0,0.414062 0.71875,1.425781 -1.435547,0 0.716797,-1.425781 z m -0.238281,0.0918 -0.654297,1.296875 -0.66211,-0.332031 1.316407,-0.964844 z m 0.478515,0 1.314454,0.964844 -0.652344,0.332031 -0.66211,-1.296875 z m 7.1875,0.02344 -0.478515,0.972656 -1.074219,0.158203 0.777344,0.757813 -0.181641,1.070312 0.958985,-0.507812 0.96289,0.503906 -0.185547,-1.06836 0.777344,-0.759765 -1.074219,-0.154297 -0.482422,-0.972656 z m -14.890625,0.01367 -0.480468,0.972656 -1.074219,0.158203 0.779297,0.757812 -0.181641,1.070313 0.958984,-0.507813 0.962891,0.503907 -0.185547,-1.06836 L 26.25,32.025391 25.173828,31.871094 24.693359,30.898438 Z m 5.853516,1.09375 0.662109,0.339843 0.423828,5.199219 -0.267578,0.166016 -0.818359,-5.705078 z m 3.228516,0.0098 -0.81836,5.705078 -0.27539,-0.166015 0.421875,-5.199219 0.671875,-0.339844 z m -2.382813,0.359375 1.53711,0 -0.423829,5.134766 -0.699218,0 -0.414063,-5.134766 z m 0.478516,5.308594 0.570312,0 -0.285156,0.560547 -0.285156,-0.560547 z m -0.183594,0.03711 0.230469,0.458985 -0.470703,-0.3125 0.240234,-0.146485 z m 0.929688,0 0.228515,0.146485 -0.458984,0.3125 0.230469,-0.458985 z m -5.048829,1.916016 -0.480468,0.974609 -1.074219,0.15625 0.779297,0.757813 -0.183594,1.070312 0.960937,-0.507812 0.962891,0.505859 L 28.347656,41.509766 29.125,40.75 28.048828,40.595703 27.568359,39.623047 Z m 9.175782,0 -0.478516,0.974609 -1.074219,0.15625 0.777344,0.757813 -0.181641,1.070312 0.960938,-0.507812 0.960937,0.505859 L 37.523438,41.509766 38.300781,40.75 37.226562,40.595703 36.744141,39.623047 Z"
           transform="matrix(0.94044527,0,0,0.94044527,0.75871309,58.664759)"
           id="path4729"
           inkscape:connector-curvature="0" />
      </g>
    </g>
  </g>
</svg>

<?xml version="1.0" encoding="UTF-8" standalone="no"?>
<!-- Created with Inkscape (http://www.inkscape.org/) -->

<svg
   xmlns:osb="http://www.openswatchbook.org/uri/2009/osb"
   xmlns:dc="http://purl.org/dc/elements/1.1/"
   xmlns:cc="http://creativecommons.org/ns#"
   xmlns:rdf="http://www.w3.org/1999/02/22-rdf-syntax-ns#"
   xmlns:svg="http://www.w3.org/2000/svg"
   xmlns="http://www.w3.org/2000/svg"
   xmlns:xlink="http://www.w3.org/1999/xlink"
   xmlns:sodipodi="http://sodipodi.sourceforge.net/DTD/sodipodi-0.dtd"
   xmlns:inkscape="http://www.inkscape.org/namespaces/inkscape"
   width="64"
   height="64"
   id="svg4136"
   version="1.1"
   inkscape:version="0.91 r13725"
   viewBox="0 0 64 64"
   sodipodi:docname="logo_sub.svg">
  <defs
     id="defs4138">
    <linearGradient
       id="linearGradient6330"
       osb:paint="solid">
      <stop
         style="stop-color:#ffffff;stop-opacity:1;"
         offset="0"
         id="stop6332" />
    </linearGradient>
    <linearGradient
       id="linearGradient6324"
       osb:paint="solid">
      <stop
         style="stop-color:#ffffff;stop-opacity:1;"
         offset="0"
         id="stop6326" />
    </linearGradient>
    <linearGradient
       id="linearGradient6318"
       osb:paint="solid">
      <stop
         style="stop-color:#4fc3f7;stop-opacity:1;"
         offset="0"
         id="stop6320" />
    </linearGradient>
    <linearGradient
       inkscape:collect="always"
       xlink:href="#linearGradient6318"
       id="linearGradient6322"
       x1="0.09391051"
       y1="31.863702"
       x2="63.996998"
       y2="31.863702"
       gradientUnits="userSpaceOnUse" />
    <linearGradient
       inkscape:collect="always"
       xlink:href="#linearGradient6330"
       id="linearGradient6334"
       x1="1.6539033"
       y1="91.321911"
       x2="56.905968"
       y2="91.321911"
       gradientUnits="userSpaceOnUse" />
    <linearGradient
       inkscape:collect="always"
       xlink:href="#linearGradient6330"
       id="linearGradient6338"
       gradientUnits="userSpaceOnUse"
       x1="1.6539033"
       y1="91.321911"
       x2="56.905968"
       y2="91.321911"
       gradientTransform="translate(-0.18181818,3.5454554)" />
  </defs>
  <sodipodi:namedview
     id="base"
     pagecolor="#ffffff"
     bordercolor="#666666"
     borderopacity="1.0"
     inkscape:pageopacity="0.0"
     inkscape:pageshadow="2"
     inkscape:zoom="3.8890873"
     inkscape:cx="54.854999"
     inkscape:cy="34.541715"
     inkscape:current-layer="layer1"
     showgrid="true"
     inkscape:document-units="px"
     inkscape:grid-bbox="true"
     inkscape:window-width="1920"
     inkscape:window-height="1017"
     inkscape:window-x="-8"
     inkscape:window-y="-8"
     inkscape:window-maximized="1"
     showguides="true" />
  <metadata
     id="metadata4141">
    <rdf:RDF>
      <cc:Work
         rdf:about="">
        <dc:format>image/svg+xml</dc:format>
        <dc:type
           rdf:resource="http://purl.org/dc/dcmitype/StillImage" />
        <dc:title></dc:title>
      </cc:Work>
    </rdf:RDF>
  </metadata>
  <g
     inkscape:groupmode="layer"
     id="layer2"
     inkscape:label="Layer 2"
     style="display:inline">
    <path
       style="fill:url(#linearGradient6322);fill-opacity:1;stroke:none;stroke-width:1.00612009;stroke-opacity:1"
       d="M 32.275729,-0.08779115 47.375122,19.659429 49.225213,34.408378 50.377401,23.840264 50.743815,27.496957 51.292494,24.999823 63.996998,41.760072 31.675002,63.815196 0.09391051,40.578254 Z"
       id="rect4844"
       inkscape:connector-curvature="0"
       sodipodi:nodetypes="cccccccccc" />
  </g>
  <g
     id="layer1"
     inkscape:label="Layer 1"
     inkscape:groupmode="layer"
     style="display:inline">
    <g
       id="g4839"
       transform="matrix(1.0633261,0,0,1.0633261,-0.80675943,-62.379769)"
       style="fill-opacity:1;fill:url(#linearGradient6334)">
      <g
         id="g4857"
         style="fill-opacity:1;fill:url(#linearGradient6334)">
        <path
           style="font-style:normal;font-weight:normal;font-size:medium;line-height:125%;font-family:sans-serif;text-align:center;letter-spacing:0px;word-spacing:0px;text-anchor:middle;fill:url(#linearGradient6338);fill-opacity:1;stroke:none;stroke-width:1px;stroke-linecap:butt;stroke-linejoin:miter;stroke-opacity:1"
           d="M 32.029297 17.511719 C 30.808496 18.244198 29.58799 18.962616 28.367188 19.667969 C 27.146385 20.373321 25.884218 21.119511 24.582031 21.90625 C 23.469746 22.530214 22.3842 23.141446 21.326172 23.738281 C 20.295273 24.335116 19.223614 24.944394 18.111328 25.568359 C 17.975683 25.622617 17.787129 25.731758 17.542969 25.894531 C 17.32593 26.030182 17.189006 26.125436 17.134766 26.179688 L 17.134766 27.15625 C 17.134766 29.733498 17.148641 32.323359 17.175781 34.927734 C 17.189559 36.25178 17.192793 37.623863 17.185547 39.039062 C 13.109052 37.424683 9.7390293 36.187686 4.9765625 35.074219 C 4.660742 35.260314 4.3397698 35.442888 4.0136719 35.623047 L 5.1699219 36.291016 L 20.515625 45.253906 L 20.519531 45.238281 C 21.888819 46.034436 23.270056 46.836994 24.623047 47.625 C 27.118907 49.089961 29.627403 50.52875 32.150391 51.939453 C 34.483477 50.583007 36.817305 49.239473 39.150391 47.910156 C 40.575193 47.09835 41.970432 46.271143 43.375 45.449219 L 43.386719 45.529297 L 58.546875 36.728516 L 59.703125 36.0625 C 59.377027 35.882339 59.056055 35.697815 58.740234 35.511719 C 54.584205 35.175844 50.902702 36.981384 47.025391 38.908203 C 47.018641 37.417357 47.018437 35.906954 47.003906 34.439453 C 46.976796 31.699433 46.990652 28.946837 47.044922 26.179688 C 44.521933 24.714725 42.025371 23.264005 39.556641 21.826172 C 37.115038 20.361212 34.606546 18.922422 32.029297 17.511719 z M 32.150391 22.638672 C 33.859513 23.615313 35.609883 24.619493 37.400391 25.650391 C 39.1909 26.68129 40.941269 27.713242 42.650391 28.744141 L 42.650391 39.242188 C 42.650391 39.486349 42.664266 39.758223 42.691406 40.056641 C 42.718506 40.355058 42.704641 40.571386 42.650391 40.707031 C 42.623262 40.761289 42.541895 40.842657 42.40625 40.951172 C 42.297735 41.032558 42.16082 41.113932 41.998047 41.195312 L 41.591797 41.439453 C 41.456152 41.493724 41.360911 41.53537 41.306641 41.5625 C 39.760292 42.484883 38.228203 43.379921 36.708984 44.248047 C 35.189764 45.116172 33.629904 46.011211 32.029297 46.933594 C 30.320176 45.902696 28.583692 44.884628 26.820312 43.880859 C 25.084061 42.877089 23.319805 41.860976 21.529297 40.830078 L 21.529297 28.744141 C 23.319805 27.71324 25.084061 26.68129 26.820312 25.650391 C 28.583692 24.619493 30.359883 23.615313 32.150391 22.638672 z M 32.134766 25.486328 L 31.654297 26.458984 L 30.580078 26.617188 L 31.359375 27.373047 L 31.175781 28.443359 L 32.136719 27.9375 L 33.097656 28.441406 L 32.914062 27.373047 L 33.689453 26.613281 L 32.615234 26.458984 L 32.134766 25.486328 z M 32.15625 30.355469 L 32.054688 30.427734 L 30.324219 31.697266 L 30.242188 31.761719 L 30.261719 31.863281 L 31.125 37.873047 L 31.134766 37.945312 L 31.199219 37.992188 L 32.054688 38.572266 L 32.15625 38.636719 L 32.257812 38.572266 L 33.113281 37.992188 L 33.177734 37.945312 L 33.1875 37.873047 L 34.052734 31.863281 L 34.070312 31.761719 L 33.988281 31.697266 L 32.257812 30.427734 L 32.15625 30.355469 z M 32.15625 30.769531 L 32.875 32.195312 L 31.439453 32.195312 L 32.15625 30.769531 z M 31.917969 30.861328 L 31.263672 32.158203 L 30.601562 31.826172 L 31.917969 30.861328 z M 32.396484 30.861328 L 33.710938 31.826172 L 33.058594 32.158203 L 32.396484 30.861328 z M 39.583984 30.884766 L 39.105469 31.857422 L 38.03125 32.015625 L 38.808594 32.773438 L 38.626953 33.84375 L 39.585938 33.335938 L 40.548828 33.839844 L 40.363281 32.771484 L 41.140625 32.011719 L 40.066406 31.857422 L 39.583984 30.884766 z M 24.693359 30.898438 L 24.212891 31.871094 L 23.138672 32.029297 L 23.917969 32.787109 L 23.736328 33.857422 L 24.695312 33.349609 L 25.658203 33.853516 L 25.472656 32.785156 L 26.25 32.025391 L 25.173828 31.871094 L 24.693359 30.898438 z M 30.546875 31.992188 L 31.208984 32.332031 L 31.632812 37.53125 L 31.365234 37.697266 L 30.546875 31.992188 z M 33.775391 32.001953 L 32.957031 37.707031 L 32.681641 37.541016 L 33.103516 32.341797 L 33.775391 32.001953 z M 31.392578 32.361328 L 32.929688 32.361328 L 32.505859 37.496094 L 31.806641 37.496094 L 31.392578 32.361328 z M 31.871094 37.669922 L 32.441406 37.669922 L 32.15625 38.230469 L 31.871094 37.669922 z M 31.6875 37.707031 L 31.917969 38.166016 L 31.447266 37.853516 L 31.6875 37.707031 z M 32.617188 37.707031 L 32.845703 37.853516 L 32.386719 38.166016 L 32.617188 37.707031 z M 27.568359 39.623047 L 27.087891 40.597656 L 26.013672 40.753906 L 26.792969 41.511719 L 26.609375 42.582031 L 27.570312 42.074219 L 28.533203 42.580078 L 28.347656 41.509766 L 29.125 40.75 L 28.048828 40.595703 L 27.568359 39.623047 z M 36.744141 39.623047 L 36.265625 40.597656 L 35.191406 40.753906 L 35.96875 41.511719 L 35.787109 42.582031 L 36.748047 42.074219 L 37.708984 42.580078 L 37.523438 41.509766 L 38.300781 40.75 L 37.226562 40.595703 L 36.744141 39.623047 z "
           transform="matrix(0.94044527,0,0,0.94044527,0.75871309,58.664759)"
           id="path4729" />
      </g>
    </g>
  </g>
</svg>
